public/svg/illustrator.svg

<svg xmlns="http://www.w3.org/2000/svg" width="56" height="56" viewBox="0 0 56 56" fill="none">
<rect width="56" height="56" fill="#C4C4C4" fill-opacity="0.01"/>
<g clip-path="url(#clip0)">
<path d="M13.333 13.3733H42.6664V41.9067H13.333V13.3733Z" fill="#210B00"/>
<path d="M13.3333 13.3738H42.6667V41.9073H13.3333V13.3738ZM12 43.2406H44.0001V12.0405H12V43.2406ZM32.96 23.1606C32.96 23.0539 33 23.0005 33.12 23.0005H35.2134C35.32 23.0005 35.3734 23.0405 35.3734 23.1606V33.6806C35.3734 33.7872 35.3467 33.8406 35.2134 33.8406H33.1467C33.0134 33.8406 32.9733 33.7739 32.9733 33.6673V23.1606H32.96ZM32.8134 20.1339C32.8134 19.2805 33.4133 18.7739 34.1734 18.7739C34.9867 18.7739 35.5334 19.3205 35.5334 20.1339C35.5334 21.0139 34.9601 21.4938 34.1467 21.4938C33.3733 21.4939 32.8134 21.0139 32.8134 20.1339ZM26.8134 27.5472C26.4401 26.0672 25.5601 22.8405 25.2267 21.2805H25.2C24.92 22.8405 24.2134 25.4805 23.6534 27.5472H26.8134ZM23.1067 29.7073L22.0533 33.7073C22.0267 33.8139 21.9867 33.8405 21.8534 33.8405H19.8934C19.76 33.8405 19.7333 33.8005 19.76 33.6406L23.5467 20.3872C23.6134 20.1472 23.6533 19.9338 23.68 19.2805C23.68 19.1872 23.72 19.1472 23.7867 19.1472H26.5867C26.68 19.1472 26.72 19.1739 26.7467 19.2805L30.9867 33.6672C31.0133 33.7738 30.9867 33.8405 30.88 33.8405H28.6667C28.56 33.8405 28.4933 33.8139 28.4667 33.7206L27.3733 29.7073H23.1067Z" fill="#FF7F18"/>
</g>
<defs>
<clipPath id="clip0">
<rect width="32" height="32" fill="white" transform="translate(12 12)"/>
</clipPath>
</defs>
</svg>

<svg xmlns="http://www.w3.org/2000/svg" width="56" height="56" fill="none" xmlns:v="https://vecta.io/nano"><path fill="#c4c4c4" fill-opacity=".01" d="M0 0h56v56H0z"/><g clip-path="url(#A)"><path d="M13.333 13.373h29.333v28.533H13.333V13.373z" fill="#210b00"/><path d="M13.333 13.374h29.333v28.534H13.333V13.374zM12 43.241h32v-31.2H12v31.2zm20.96-20.08c0-.107.04-.16.16-.16h2.093c.107 0 .16.04.16.16v10.52c0 .107-.027.16-.16.16h-2.067c-.133 0-.173-.067-.173-.173V23.161h-.013zm-.147-3.027c0-.853.6-1.36 1.36-1.36.813 0 1.36.547 1.36 1.36 0 .88-.573 1.36-1.387 1.36-.773 0-1.333-.48-1.333-1.36zm-6 7.413l-1.587-6.267H25.2c-.28 1.56-.987 4.2-1.547 6.267h3.16zm-3.707 2.16l-1.053 4c-.027.107-.067.133-.2.133h-1.96c-.133 0-.16-.04-.133-.2l3.787-13.253c.067-.24.107-.453.133-1.107 0-.093.04-.133.107-.133h2.8c.093 0 .133.027.16.133l4.24 14.387c.027.107 0 .173-.107.173h-2.213c-.107 0-.173-.027-.2-.12l-1.093-4.013h-4.267z" fill="#ff7f18"/></g><defs><clipPath id="A"><path fill="#fff" transform="translate(12 12)" d="M0 0h32v32H0z"/></clipPath></defs></svg>
